X: 8
T: Saddle The Pony
Z: SamiC
S: https://thesession.org/tunes/307#setting50867
R: jig
M: 6/8
L: 1/8
K: Gmaj
|:GBA G2B|def gdB|GBA G2B|AFD AFD|
GBA G2B|def gfg|e/f/ge dBG|1 AGF G2D:|2 AGF GB/c/d||
|:efe edB|def gfg|efe edB|dBA ABd|
efe edB|def gfg|e/f/ge dBG|1 AGF Ggf:|2 AGF G3||

